X:43
T:Mademoiselle, voulez-vous 
R:
S:
N:p. 90
A:Champagne
G:
O:France
Z:<anamnese@laposte.net>
M:4/4
L:1/8
Q:1/4=135
K:D
F>G A2 F2 | d2 A4 | B>A G2 E2 | A>G F2 D2 |
F>G A2 F2 | d2 A4 | B>A G2 E2 | A2 D4 |]
